X:1
T:Wembley, LM repeat
T:Wembley, LM repeat
T:William M. Gibson, 1904
T:Public Domain Courtesy of the Cyber Hymnal™
C:William M. Gibson, 1904
Z:Public Domain
Z:Courtesy of the Cyber Hymnal™
%%score ( 1 2 ) ( 3 4 )
L:1/8
Q:1/4=120
M:3/4
K:F
V:1 treble 
V:2 treble 
V:3 bass 
V:4 bass 
V:1
 [CA]2 | A4 [EA]2 | [DB]4 [CA]2 | (A2 F2) [DG]2 | [CE]4 [EG]2 | [FA]4 [FA]2 | (B2 A2) [EB]2 | %7
 (A2 c2) [FA]2 | [EG]4 [Ec]2 | ([Ec]2 [Fd]2) [Ge]2 | [Ff]4 [FA]2 | ([FA]2 [GB]2) [Ac]2 | %12
 [Bd]4 [Ed]2 | [Fc]4 [EB]2 | [FA]4 [EG]2 | [DF]4 [EG]2 | !fermata![EA]4 [Ec]2 | (f2 e2) [Fd]2 | %18
 [Fc]4 F2 | ([FA]2 [CF]2) [CG]2 | [CF]4 |] %21
V:2
 x2 | (C2 F2) x2 | x6 | C4 x2 | x6 | x6 | E4 x2 | F4 x2 | x6 | x6 | x6 | x6 | x6 | x6 | x6 | x6 | %16
 x6 | F4 x2 | x4 F2 | x6 | x4 |] %21
V:3
 [F,,F,]2 | [F,,F,]4 [F,,F,]2 | [F,,F,]4 [F,,F,]2 | F,4 [B,,B,]2 | [C,G,]4 [C,C]2 | [F,C]4 [F,C]2 | %6
 [G,C]4 [C,C]2 | C4 [F,C]2 | [C,C]4 C2 | C4 [B,C]2 | [A,C]4 [F,C]2 | [F,C]4 [F,_E]2 | %12
 [B,,D]4 [B,C]2 | [A,C]4 [G,C]2 | [F,C]4 [C,B,]2 | [D,A,]4 [B,,D]2 | [A,,^C]4 [G,B,]2 | %17
 (A,2 C2) [F,B,]2 | [F,A,]4 [D,A,]2 | (C2 A,2) [C,B,]2 | [F,A,]4 |] %21
V:4
 x2 | x6 | x6 | (F,,2 A,,2) x2 | x6 | x6 | x6 | (F,2 A,2) x2 | x4 C2 | C4 x2 | x6 | x6 | x6 | x6 | %14
 x6 | x6 | x6 | F,4 x2 | x6 | C,4 x2 | x4 |] %21

